Papirus-Dark/16x16/actions/edit-clone.svg

<?xml version="1.0" encoding="UTF-8" standalone="no"?>
<svg xmlns="http://www.w3.org/2000/svg" width="16" height="16" viewBox="0 0 16 16">
 <defs>
  <style type="text/css" id="current-color-scheme">
   .ColorScheme-Text { color:#d3dae3; }
  </style>
 </defs>
 <path style="fill:currentColor;opacity:1" class="ColorScheme-Text" d="M 2 2 L 2 10 L 6 10 L 6 14 L 14 14 L 14 6 L 10 6 L 10 2 L 2 2 z M 10 7 C 10.739 7 11.333984 7.7802344 11.333984 8.7402344 L 11.333984 9.5722656 L 11.666016 9.5722656 C 11.851016 9.5722656 12 9.7626 12 10 L 12 12.572266 C 12 12.810266 11.851016 13 11.666016 13 L 8.3339844 13 C 8.1492844 13 8 12.810266 8 12.572266 L 8 10 C 8 9.7626 8.1492844 9.5722656 8.3339844 9.5722656 L 8.6660156 9.5722656 L 8.6660156 8.7402344 C 8.6660156 7.7799344 9.2613 7 10 7 z M 10 7.8574219 C 9.6307 7.8574219 9.3339844 8.2400438 9.3339844 8.7148438 L 9.3339844 9.5722656 L 10.666016 9.5722656 L 10.666016 8.7148438 C 10.666016 8.2400437 10.369 7.8574219 10 7.8574219 z"/>
</svg>

<?xml version="1.0" encoding="UTF-8" standalone="no"?>
<!--Created with Inkscape (http://www.inkscape.org/)-->
<svg id="svg7384" xmlns:rdf="http://www.w3.org/1999/02/22-rdf-syntax-ns#" style="enable-background:new" xmlns="http://www.w3.org/2000/svg" height="16" width="15.982" version="1.1" xmlns:cc="http://creativecommons.org/ns#" xmlns:dc="http://purl.org/dc/elements/1.1/">
 <metadata id="metadata90">
  <rdf:RDF>
   <cc:Work rdf:about="">
    <dc:format>image/svg+xml</dc:format>
    <dc:type rdf:resource="http://purl.org/dc/dcmitype/StillImage"/>
   </cc:Work>
  </rdf:RDF>
 </metadata>
 <g id="layer12" transform="translate(-385 59.003)">
  <path id="rect4138" opacity="1" fill="#d3dae3" transform="translate(385 -59.003)" d="m2 2v8h4v4h8v-8h-4v-4h-8zm8 5c0.739 0 1.334 0.7802 1.334 1.7402v0.8321h0.332c0.185 0 0.334 0.1903 0.334 0.4277v2.572c0 0.238-0.149 0.428-0.334 0.428h-3.332c-0.1847 0-0.334-0.19-0.334-0.428v-2.572c0-0.2374 0.1493-0.4277 0.334-0.4277h0.332v-0.8321c0-0.9603 0.5953-1.7402 1.334-1.7402zm0 0.8574c-0.3693 0-0.666 0.3826-0.666 0.8574v0.8575h1.332v-0.8575c0-0.4748-0.297-0.8574-0.666-0.8574z"/>
 </g>
</svg>
